X: 61
M: 6/8
L: 1/8
K: G
|:\
d2d d2c | B2B B2A | G2(G A)GA | B2B B2c |\
d2d d2c | B2B B2A | G2G AGA | [B3G3] [B3G3] :|
|:\
b2b bag | a2d def | g2g gfe | f2B Bcd |\
e2(e e)dc | d2G GAB | cdc BcB | A3 A3 :|
|:\
a2a a2g | f2f f2e | d2d ede | d3- d2 (G//A//B//c//) |
d2d d2c | B2B B2A | G2(G A)GA | B2B B2c |\
d2d d2c | {c}B2B B2A | G2G AGA | G3- G3 :|


